src/assets/HuaweiAppGallerywhite.svg

<svg width="116" height="35" viewBox="0 0 116 35" fill="none" xmlns="http://www.w3.org/2000/svg">
<g clip-path="url(#clip0_1548_3159)">
<path d="M7.42923 33.8687C7.16394 33.8687 6.91952 33.8687 6.65423 33.8598C6.1773 33.8509 5.61392 33.8242 5.05949 33.7203C4.54083 33.6313 4.07285 33.4741 3.64063 33.2545C3.19947 33.035 2.79408 32.7383 2.45129 32.3941C2.09955 32.044 1.80743 31.6494 1.58089 31.2014C1.36031 30.7711 1.21127 30.3172 1.11291 29.7891C1.00858 29.2194 0.981752 28.6408 0.972809 28.2017C0.963867 28.0178 0.963867 27.4214 0.963867 27.4214V7.34071C0.963867 7.34071 0.972809 6.75324 0.972809 6.57819C0.981752 6.13017 1.00858 5.5516 1.11291 4.99084C1.20829 4.46568 1.36031 4.00876 1.58089 3.56964C1.81042 3.13053 2.09955 2.72701 2.44533 2.38581C2.79706 2.0357 3.20245 1.73603 3.64361 1.51944C4.08477 1.29098 4.54978 1.14263 5.06247 1.05362C5.63479 0.949779 6.21605 0.923075 6.66615 0.914174L7.43221 0.905273H108.353L109.137 0.914174C109.578 0.923075 110.16 0.949779 110.723 1.05362C111.242 1.14263 111.71 1.29098 112.151 1.51944C112.592 1.739 112.997 2.0357 113.34 2.38581C113.692 2.72701 113.984 3.13053 114.22 3.57854C114.44 4.00876 114.589 4.47161 114.67 4.98194C114.774 5.516 114.801 6.06786 114.819 6.58709C114.828 6.82445 114.828 7.08555 114.828 7.34071C114.828 7.65521 114.828 7.96378 114.828 8.26938V26.5016C114.828 26.8072 114.828 27.1158 114.828 27.4214C114.828 27.6944 114.828 27.9466 114.819 28.2106C114.801 28.7091 114.774 29.2639 114.679 29.7802C114.589 30.3053 114.44 30.7622 114.211 31.2014C113.981 31.6494 113.692 32.044 113.346 32.3852C112.994 32.7353 112.589 33.0261 112.148 33.2516C111.707 33.48 111.251 33.6195 110.72 33.7174C110.175 33.8212 109.611 33.8479 109.125 33.8568C108.878 33.8657 108.616 33.8657 108.359 33.8657H107.435H7.42923V33.8687Z" fill="white"/>
<path d="M39.5073 22.0185L37.5877 16.8559L35.677 22.0185H39.5073ZM32.8154 25.8489L36.7948 15.4703H38.3895L42.3689 25.8489H40.8994L39.9485 23.1845H35.2537L34.3029 25.8489H32.8154ZM45.0725 24.6829V28.81H43.7878V18.0635H45.0725V19.2384C45.3438 18.7756 45.6836 18.4344 46.0949 18.2118C46.5122 17.9834 47.0041 17.8706 47.5734 17.8706C48.5243 17.8706 49.2963 18.2474 49.8895 19.0011C50.4886 19.7487 50.7867 20.7368 50.7867 21.9651C50.7867 23.1875 50.4886 24.1726 49.8895 24.9291C49.2963 25.6768 48.5243 26.0507 47.5734 26.0507C47.0041 26.0507 46.5122 25.9409 46.0949 25.7184C45.6836 25.4899 45.3438 25.1428 45.0725 24.6829ZM49.4483 21.9651C49.4483 21.0246 49.2516 20.2858 48.8581 19.7487C48.4766 19.2117 47.946 18.9417 47.2634 18.9417C46.5838 18.9417 46.0442 19.2117 45.6508 19.7487C45.2633 20.2858 45.0695 21.0246 45.0695 21.9651C45.0695 22.9056 45.2633 23.6444 45.6508 24.1815C46.0442 24.7125 46.5808 24.9796 47.2634 24.9796C47.943 24.9796 48.4766 24.7125 48.8581 24.1815C49.2516 23.6444 49.4483 22.9056 49.4483 21.9651ZM54.161 24.6829V28.81H52.8673V18.0635H54.161V19.2384C54.4322 18.7756 54.7691 18.4344 55.1745 18.2118C55.5918 17.9834 56.0866 17.8706 56.6619 17.8706C57.6068 17.8706 58.3758 18.2474 58.969 19.0011C59.5682 19.7487 59.8662 20.7368 59.8662 21.9651C59.8662 23.1875 59.5682 24.1726 58.969 24.9291C58.3758 25.6768 57.6068 26.0507 56.6619 26.0507C56.0866 26.0507 55.5918 25.9409 55.1745 25.7184C54.7691 25.4899 54.4293 25.1428 54.161 24.6829ZM58.5279 21.9651C58.5279 21.0246 58.3311 20.2858 57.9377 19.7487C57.5561 19.2117 57.0255 18.9417 56.3429 18.9417C55.6633 18.9417 55.1238 19.2117 54.7303 19.7487C54.3488 20.2858 54.158 21.0246 54.158 21.9651C54.158 22.9056 54.3488 23.6444 54.7303 24.1815C55.1238 24.7125 55.6603 24.9796 56.3429 24.9796C57.0225 24.9796 57.5561 24.7125 57.9377 24.1815C58.3311 23.6444 58.5279 22.9056 58.5279 21.9651ZM69.1127 24.3684V21.5824H66.8145V20.4252H70.5137V24.8876C69.9682 25.2733 69.3661 25.5641 68.7073 25.7629C68.0545 25.9557 67.357 26.0507 66.6118 26.0507C64.9783 26.0507 63.7025 25.5759 62.7815 24.6295C61.8664 23.683 61.4073 22.3627 61.4073 20.6685C61.4073 18.9744 61.8664 17.654 62.7815 16.7076C63.7025 15.7552 64.9813 15.2775 66.6118 15.2775C67.2914 15.2775 67.9353 15.3635 68.5404 15.5326C69.1574 15.6958 69.7238 15.9421 70.2394 16.2685V17.7668C69.7178 17.3217 69.1634 16.9894 68.5762 16.7669C67.9889 16.5444 67.3719 16.4346 66.7281 16.4346C65.4552 16.4346 64.4954 16.7877 63.8486 17.4938C63.2137 18.2059 62.8977 19.2651 62.8977 20.6656C62.8977 22.066 63.2137 23.1222 63.8486 23.8284C64.4954 24.5345 65.4552 24.8876 66.7281 24.8876C67.2258 24.8876 67.673 24.8461 68.0664 24.766C68.4539 24.6829 68.8027 24.5494 69.1127 24.3684ZM77.8226 21.9295H76.5468C75.5065 21.9295 74.7882 22.0482 74.3887 22.2885C73.9893 22.5229 73.7896 22.9264 73.7896 23.499C73.7896 23.956 73.9386 24.3179 74.2397 24.585C74.5378 24.849 74.9461 24.9796 75.4648 24.9796C76.1802 24.9796 76.7525 24.7274 77.1817 24.226C77.611 23.7245 77.8256 23.054 77.8256 22.2173V21.9295H77.8226ZM79.1073 21.4043V25.8489H77.8226V24.6651C77.5305 25.1398 77.1639 25.4899 76.7316 25.7184C76.2905 25.9409 75.7539 26.0507 75.119 26.0507C74.3202 26.0507 73.6823 25.8281 73.2083 25.3831C72.7374 24.9321 72.5049 24.3298 72.5049 23.5762C72.5049 22.7069 72.797 22.0452 73.3842 21.5942C73.9774 21.1492 74.8567 20.9267 76.0252 20.9267H77.8226V20.805C77.8226 20.2146 77.6289 19.7576 77.2414 19.4372C76.8539 19.1168 76.3084 18.9566 75.6049 18.9566C75.1578 18.9566 74.7256 19.01 74.3023 19.1138C73.879 19.2177 73.4706 19.3808 73.0772 19.5945V18.4106C73.5481 18.2296 74.0042 18.0961 74.4513 18.0071C74.8925 17.9122 75.3187 17.8677 75.736 17.8677C76.8687 17.8677 77.7153 18.1584 78.2727 18.7429C78.8301 19.3334 79.1073 20.2175 79.1073 21.4043ZM81.7573 25.8489V15.0342H83.042V25.8489H81.7573ZM85.7307 25.8489V15.0342H87.0154V25.8489H85.7307ZM96.3573 21.6328V22.2648H90.4493C90.503 23.14 90.7653 23.8135 91.2422 24.2794C91.7221 24.7363 92.3898 24.9618 93.2423 24.9618C93.7341 24.9618 94.2111 24.9024 94.6701 24.7867C95.1411 24.6651 95.6001 24.4841 96.0532 24.2438V25.4543C95.5942 25.6472 95.1232 25.7955 94.6344 25.9023C94.1544 26.0002 93.6626 26.0507 93.1648 26.0507C91.9188 26.0507 90.9322 25.6887 90.1959 24.9647C89.4686 24.2467 89.105 23.2706 89.105 22.0363C89.105 20.7575 89.4507 19.7458 90.1453 19.004C90.8368 18.2504 91.7728 17.8736 92.9442 17.8736C93.9965 17.8736 94.8251 18.2118 95.4362 18.8913C96.0502 19.5618 96.3573 20.4757 96.3573 21.6328ZM90.4851 21.2649H95.0725C95.0606 20.5647 94.8609 20.0039 94.4734 19.5826C94.0918 19.1672 93.5851 18.9595 92.9502 18.9595C92.2348 18.9595 91.6595 19.1613 91.2243 19.5648C90.7951 19.9683 90.5506 20.535 90.4851 21.2649ZM102.945 17.9418L102.954 19.2562C102.808 19.1731 102.65 19.1138 102.477 19.0723C102.304 19.0307 102.122 19.01 101.922 19.01C101.195 19.01 100.635 19.2473 100.241 19.7191C99.8537 20.1879 99.66 20.8614 99.66 21.7426V25.8459H98.3753V18.0635H99.66V19.274C99.9312 18.7993 100.283 18.4492 100.718 18.2207C101.153 17.9864 101.678 17.8706 102.295 17.8706C102.384 17.8706 102.483 17.8795 102.593 17.8973C102.697 17.9033 102.817 17.9181 102.945 17.9418ZM110.993 18.0635L107.559 26.5669C107.195 27.4956 106.841 28.1038 106.495 28.3887C106.149 28.6705 105.687 28.81 105.112 28.81H104.081V27.7419H104.838C105.189 27.7419 105.467 27.6558 105.666 27.4867C105.86 27.3235 106.075 26.9289 106.31 26.3029L106.549 25.7243L103.377 18.0635H104.742L107.19 24.1459L109.628 18.0635H110.993Z" fill="#010202"/>
<path d="M32.7354 11.8234V6.46799H36.1335V7.07326H33.4567V8.66061H36.0202V9.27478H33.4567V11.2122H36.205V11.8264H32.7354V11.8234ZM38.8132 8.96621L37.141 6.46799H37.9249L39.2633 8.45885L40.6017 6.46799H41.3856L39.6598 9.03742L41.4989 11.8234H40.715L39.2097 9.54478L37.6775 11.8234H36.8936L38.8132 8.96621ZM44.0952 7.06436H43.1801V9.07302H44.0952C44.435 9.07302 44.7003 8.98698 44.8881 8.81786C45.0699 8.64281 45.1623 8.39061 45.1623 8.06424C45.1623 7.74974 45.0699 7.50348 44.8881 7.32842C44.7003 7.15337 44.435 7.06436 44.0952 7.06436ZM42.4587 11.8234V6.46799H44.0952C44.7003 6.46799 45.1564 6.60151 45.4694 6.87151C45.7734 7.14744 45.9284 7.54205 45.9284 8.06424C45.9284 8.59533 45.7764 8.99588 45.4694 9.26588C45.1594 9.53587 44.7003 9.66939 44.0952 9.66939H43.1801V11.8264H42.4587V11.8234ZM46.9061 11.8234V6.46799H47.6364V11.2093H50.2595V11.8234H46.9061ZM52.9452 6.96052C52.4176 6.96052 51.9943 7.15634 51.6784 7.54798C51.3743 7.93963 51.2193 8.47369 51.2193 9.15313C51.2193 9.82368 51.3713 10.3607 51.6784 10.7583C51.9943 11.1499 52.4176 11.3457 52.9452 11.3457C53.4728 11.3457 53.8901 11.1499 54.1942 10.7583C54.5042 10.3607 54.6622 9.82664 54.6622 9.15313C54.6622 8.47666 54.5072 7.93963 54.1942 7.54798C53.8901 7.15337 53.4728 6.96052 52.9452 6.96052ZM52.9452 6.37305C53.6964 6.37305 54.2985 6.62524 54.7516 7.12667C55.2047 7.62809 55.4282 8.30457 55.4282 9.15016C55.4282 9.99873 55.2017 10.6722 54.7516 11.1737C54.2985 11.6751 53.6964 11.9273 52.9452 11.9273C52.1881 11.9273 51.58 11.6751 51.121 11.1737C50.6679 10.6722 50.4443 9.99576 50.4443 9.15016C50.4443 8.3016 50.6709 7.62809 51.121 7.12667C51.58 6.62228 52.1881 6.37305 52.9452 6.37305ZM59.1185 9.30741C59.2764 9.36082 59.4285 9.47357 59.5775 9.64862C59.7236 9.81774 59.8726 10.0551 60.0276 10.3577L60.7668 11.8205H59.9829L59.2973 10.4438C59.1155 10.0877 58.9426 9.85038 58.7787 9.73466C58.6087 9.61895 58.3792 9.55961 58.0931 9.55961H57.3002V11.8205H56.5699V6.46799H58.2153C58.8323 6.46799 59.2913 6.59558 59.5984 6.8537C59.8965 7.1059 60.0485 7.49161 60.0485 8.01083C60.0485 8.34907 59.968 8.63094 59.81 8.85346C59.6461 9.07302 59.4195 9.22731 59.1185 9.30741ZM58.2123 7.06436H57.2972V8.96621H58.2123C58.564 8.96621 58.8293 8.88313 59.0052 8.71995C59.187 8.55676 59.2794 8.3194 59.2794 8.01083C59.2794 7.69633 59.187 7.45897 59.0052 7.30172C58.8293 7.14447 58.564 7.06436 58.2123 7.06436ZM61.6998 11.8234V6.46799H65.098V7.07326H62.4301V8.66061H64.9936V9.27478H62.4301V11.2122H65.1695V11.8264H61.6998V11.8234ZM68.7077 11.8234V6.46799H69.438V11.8234H68.7077ZM70.1445 7.07326V6.46799H74.6962V7.07326H72.7855V11.8234H72.0552V7.07326H70.1445ZM79.9275 6.96052C79.3999 6.96052 78.9796 7.15634 78.6696 7.54798C78.3596 7.93963 78.2016 8.47369 78.2016 9.15313C78.2016 9.82368 78.3566 10.3607 78.6696 10.7583C78.9796 11.1499 79.3999 11.3457 79.9275 11.3457C80.4551 11.3457 80.8754 11.1499 81.1854 10.7583C81.4894 10.3607 81.6444 9.82664 81.6444 9.15313C81.6444 8.47666 81.4924 7.93963 81.1854 7.54798C80.8754 7.15337 80.4551 6.96052 79.9275 6.96052ZM79.9275 6.37305C80.6846 6.37305 81.2897 6.62524 81.7428 7.12667C82.1959 7.62809 82.4194 8.30457 82.4194 9.15016C82.4194 9.99873 82.1929 10.6722 81.7428 11.1737C81.2927 11.6751 80.6846 11.9273 79.9275 11.9273C79.1703 11.9273 78.5652 11.6751 78.1122 11.1737C77.6591 10.6722 77.4355 9.99576 77.4355 9.15016C77.4355 8.3016 77.6621 7.62809 78.1122 7.12667C78.5652 6.62228 79.1703 6.37305 79.9275 6.37305ZM83.5551 11.8234V6.46799H84.5328L86.9204 10.9482V6.46799H87.6329V11.8234H86.6462L84.2586 7.34326V11.8234H83.5551Z" fill="#010202"/>
<path d="M23.525 6.48584H13.9447C9.42583 6.48584 7.77148 8.12362 7.77148 12.6216V22.1576C7.77148 26.6555 9.42583 28.3022 13.9447 28.3022H23.525C28.035 28.3022 29.6894 26.6555 29.6894 22.1576V12.6216C29.6894 8.12362 28.0439 6.48584 23.525 6.48584Z" fill="#010202"/>
<path fill-rule="evenodd" clip-rule="evenodd" d="M17.1252 19.6505L16.8599 20.2379H16.2697L17.5276 17.3896H18.0374L19.2953 20.2379H18.6872L18.4308 19.6505H17.1252ZM17.3339 19.1342H18.2132L17.7721 18.1165L17.3339 19.1342ZM26.6698 17.3896H27.251V20.2379H26.6698V17.3896ZM24.3895 19.7217H25.9842V20.2379H23.8171V17.3896H25.9216V17.9148H24.3895V18.4933H25.4476V19.0185H24.3895V19.7217ZM22.7411 17.3896H23.3492L22.3536 20.2468H21.8617L21.2089 18.3717L20.5561 20.2468H20.0792L19.0747 17.3896H19.7006L20.3356 19.3538L20.9794 17.3896H21.4563L22.1091 19.3538L22.7411 17.3896ZM15.3904 17.3896H15.9717V19.0037C15.9717 19.8196 15.5216 20.2914 14.7287 20.2914C13.9537 20.2914 13.5035 19.8255 13.5035 19.0215V17.3926H14.0848V19.0066C14.0848 19.4873 14.3143 19.7425 14.7376 19.7425C15.1609 19.7425 15.3904 19.4873 15.3904 19.0244V17.3896ZM12.1145 17.3896H12.6957V20.2468H12.1145V19.0808H10.8029V20.2468H10.2217V17.3896H10.8029V18.5379H12.1145V17.3896ZM18.7349 13.761C16.7169 13.761 15.0893 12.1321 15.0893 10.1323H15.5991C15.5991 11.8502 17.009 13.2447 18.7349 13.2447C20.4608 13.2447 21.8707 11.8502 21.8707 10.1323H22.3804C22.3804 12.1291 20.7439 13.761 18.7349 13.761Z" fill="white"/>
</g>
<defs>
<clipPath id="clip0_1548_3159">
<rect width="115.655" height="34.714" fill="white"/>
</clipPath>
</defs>
</svg>

<svg xmlns="http://www.w3.org/2000/svg" width="116" height="35" fill="none" viewBox="0 0 116 35"><g clip-path="url(#a)"><path fill="#fff" d="M7.43 33.869c-.266 0-.51 0-.776-.01a10 10 0 0 1-1.595-.139 5 5 0 0 1-1.418-.465 4.6 4.6 0 0 1-1.19-.86 4.6 4.6 0 0 1-.87-1.194 5 5 0 0 1-.468-1.412 10 10 0 0 1-.14-1.587c-.01-.184-.01-.78-.01-.78V7.34s.01-.588.01-.763a10 10 0 0 1 .14-1.587c.095-.525.247-.982.468-1.421.23-.44.519-.843.864-1.184.352-.35.757-.65 1.199-.867a4.8 4.8 0 0 1 1.418-.465A10.5 10.5 0 0 1 6.666.914l.766-.009h100.921l.784.01a10 10 0 0 1 1.586.139c.519.089.987.237 1.428.465.441.22.846.517 1.189.867a4.7 4.7 0 0 1 .88 1.193c.22.43.369.893.45 1.403.104.534.131 1.086.149 1.605.009.237.009.499.009.754v20.081c0 .272 0 .525-.009.789-.018.498-.045 1.053-.14 1.57-.09.524-.239.981-.468 1.42q-.346.672-.865 1.184c-.352.35-.757.641-1.198.867-.441.228-.897.367-1.428.465-.545.104-1.109.13-1.595.14-.247.009-.509.009-.766.009H7.429z"/><path fill="#010202" d="m39.507 22.019-1.92-5.163-1.91 5.162zm-6.692 3.83 3.98-10.379h1.594l3.98 10.379h-1.47l-.95-2.665h-4.695l-.951 2.665zm12.258-1.166v4.127h-1.285V18.064h1.285v1.174q.405-.693 1.022-1.026.626-.342 1.478-.341Q49 17.87 49.89 19q.899 1.122.898 2.964c0 1.223-.298 2.208-.898 2.964Q49 26.05 47.574 26.05q-.852 0-1.478-.333-.616-.344-1.023-1.035m4.375-2.718q0-1.411-.59-2.216-.571-.806-1.595-.807-1.021 0-1.612.807-.582.806-.582 2.216t.582 2.217q.59.797 1.612.798 1.022-.001 1.595-.799.59-.805.59-2.216m4.713 2.718v4.127h-1.294V18.064h1.294v1.174q.406-.693 1.014-1.026.625-.342 1.487-.341 1.418 0 2.307 1.13.899 1.122.897 2.964c0 1.223-.298 2.208-.897 2.964q-.89 1.122-2.307 1.122-.862 0-1.487-.333-.61-.344-1.014-1.035m4.367-2.718q0-1.411-.59-2.216-.572-.806-1.595-.807-1.022 0-1.613.807-.572.806-.572 2.216t.572 2.217q.59.797 1.613.798 1.021-.001 1.595-.799.59-.805.59-2.216m10.585 2.403v-2.786h-2.299v-1.157h3.7v4.463a6.2 6.2 0 0 1-1.807.875 7.4 7.4 0 0 1-2.095.288q-2.45-.001-3.83-1.421-1.374-1.42-1.375-3.961.001-2.542 1.375-3.961c.92-.953 2.2-1.43 3.83-1.43q1.02 0 1.928.255.926.246 1.7.736v1.498a5.6 5.6 0 0 0-1.664-1 5.2 5.2 0 0 0-1.848-.332q-1.91 0-2.88 1.059-.95 1.07-.95 3.172 0 2.101.95 3.162.97 1.06 2.88 1.06.748-.001 1.338-.122a3.5 3.5 0 0 0 1.047-.398m8.71-2.438h-1.276q-1.56-.001-2.158.358-.6.352-.6 1.211 0 .686.45 1.086.448.395 1.226.395 1.072-.001 1.717-.754.644-.753.644-2.009v-.287zm1.284-.526v4.445h-1.284v-1.184c-.292.475-.66.825-1.091 1.053q-.662.334-1.613.333-1.2 0-1.91-.668-.706-.675-.704-1.807-.001-1.305.88-1.982.888-.667 2.64-.667h1.798v-.122q0-.886-.582-1.368-.581-.48-1.636-.48-.67 0-1.303.157a5 5 0 0 0-1.225.48v-1.183q.705-.271 1.374-.404a6 6 0 0 1 1.285-.14q1.7 0 2.537.876.835.884.834 2.661m2.65 4.445V15.034h1.285V25.85zm3.974 0V15.034h1.284V25.85zm10.626-4.216v.632H90.45q.08 1.314.793 2.014.721.684 2 .683.74-.001 1.428-.175.705-.183 1.383-.543v1.21q-.687.289-1.419.448a7.4 7.4 0 0 1-1.47.149q-1.866 0-2.968-1.086-1.09-1.077-1.091-2.929 0-1.919 1.04-3.032c.692-.754 1.628-1.13 2.8-1.13q1.576 0 2.491 1.017.921 1.006.921 2.742m-5.872-.368h4.588q-.018-1.05-.6-1.682-.571-.623-1.523-.623-1.072 0-1.726.605-.642.605-.739 1.7m12.46-3.323.009 1.314a1.8 1.8 0 0 0-.477-.184 2.4 2.4 0 0 0-.555-.062q-1.09 0-1.681.71-.58.701-.581 2.023v4.103h-1.285v-7.782h1.285v1.21q.406-.712 1.058-1.053.652-.351 1.577-.35.133 0 .298.026c.104.006.224.021.352.045m8.048.122-3.434 8.503q-.546 1.394-1.064 1.822-.52.422-1.383.421h-1.031v-1.068h.757q.528 0 .828-.255.291-.245.644-1.184l.239-.579-3.172-7.66h1.365l2.448 6.082 2.438-6.082zm-78.259-6.241V6.468h3.398v.605h-2.676v1.588h2.563v.614h-2.563v1.937h2.748v.614h-3.47zm6.078-2.857-1.672-2.498h.784l1.338 1.99 1.339-1.99h.784l-1.726 2.57 1.839 2.785h-.784L39.21 9.545l-1.532 2.278h-.784zm5.282-1.902h-.915v2.009h.915q.51 0 .793-.255.273-.263.274-.754 0-.472-.274-.736-.283-.263-.793-.264m-1.636 4.76V6.467h1.636q.906 0 1.374.404.458.41.46 1.192 0 .797-.46 1.202-.466.404-1.374.403h-.915v2.157zm4.447 0V6.467h.73v4.741h2.624v.614zm6.04-4.863q-.793 0-1.268.587-.458.587-.459 1.605c0 .67.152 1.208.46 1.605q.474.588 1.266.588t1.25-.588q.466-.595.467-1.605 0-1.015-.468-1.605c-.304-.395-.721-.587-1.249-.587m0-.588q1.125 0 1.806.754.678.753.676 2.023 0 1.272-.676 2.024-.68.752-1.807.753-1.135 0-1.824-.753-.678-.754-.677-2.024.001-1.272.677-2.023.689-.756 1.824-.754m6.172 2.934q.236.08.46.342.218.254.45.709l.739 1.462h-.784l-.686-1.376q-.272-.535-.518-.71-.256-.173-.686-.174H57.3v2.26h-.73V6.468h1.645q.924 0 1.383.386.45.378.45 1.157 0 .508-.238.842a1.22 1.22 0 0 1-.692.454m-.906-2.243h-.915v1.902h.915q.528 0 .793-.246.273-.245.274-.71 0-.472-.274-.708-.265-.238-.793-.238m3.488 4.76V6.467h3.398v.605H62.43V8.66h2.564v.614H62.43v1.937h2.74v.614H61.7zm7.008 0V6.467h.73v5.355zm1.436-4.75v-.606h4.552v.605h-1.91v4.75h-.73v-4.75zm9.783-.113q-.791 0-1.257.587t-.468 1.605c0 .67.155 1.208.468 1.605q.466.588 1.257.588.793 0 1.258-.588.458-.595.46-1.605 0-1.015-.46-1.605c-.31-.395-.73-.587-1.258-.587m0-.588q1.137 0 1.816.754.678.753.676 2.023 0 1.272-.676 2.024c-.45.501-1.058.753-1.815.753q-1.137 0-1.816-.753-.678-.754-.676-2.024 0-1.272.676-2.023.68-.756 1.816-.754m3.628 5.45V6.468h.978l2.387 4.48v-4.48h.713v5.355h-.987l-2.387-4.48v4.48zM23.525 6.486h-9.58c-4.52 0-6.174 1.638-6.174 6.136v9.536c0 4.497 1.655 6.144 6.174 6.144h9.58c4.51 0 6.164-1.646 6.164-6.144v-9.536c0-4.498-1.645-6.136-6.164-6.136"/><path fill="#fff" fill-rule="evenodd" d="m17.125 19.65-.265.588h-.59l1.258-2.848h.51l1.257 2.848h-.608l-.256-.587zm.209-.516h.88l-.442-1.018zm9.336-1.744h.581v2.848h-.581zm-2.28 2.332h1.594v.516h-2.167V17.39h2.105v.525H24.39v.578h1.058v.526H24.39zm-1.65-2.332h.608l-.995 2.857h-.492l-.653-1.875-.653 1.875h-.477l-1.004-2.857h.626l.635 1.964.643-1.964h.477l.653 1.964zm-7.35 0h.58v1.614c0 .816-.45 1.287-1.242 1.287-.775 0-1.225-.465-1.225-1.27v-1.628h.58v1.614c0 .48.23.735.654.735.423 0 .652-.255.652-.718zm-3.277 0h.582v2.857h-.582V19.08h-1.311v1.166h-.581V17.39h.58v1.148h1.313zm6.62-3.629a3.637 3.637 0 0 1-3.645-3.629h.51c0 1.718 1.41 3.113 3.136 3.113s3.136-1.395 3.136-3.113h.51c0 1.997-1.637 3.629-3.646 3.629" clip-rule="evenodd"/></g><defs><clipPath id="a"><path fill="#fff" d="M0 0h115.655v34.714H0z"/></clipPath></defs></svg>
